icons/drag-drop.svg

<svg width="24" height="24" viewBox="0 0 24 24" fill="none" xmlns="http://www.w3.org/2000/svg">
<path fill-rule="evenodd" clip-rule="evenodd" d="M2 3C2 2.44772 2.44772 2 3 2H3.01C3.56228 2 4.01 2.44772 4.01 3C4.01 3.55228 3.56228 4 3.01 4H3C2.44772 4 2 3.55228 2 3ZM6 3C6 2.44772 6.44772 2 7 2H7.01C7.56228 2 8.01 2.44772 8.01 3C8.01 3.55228 7.56228 4 7.01 4H7C6.44772 4 6 3.55228 6 3ZM10 3C10 2.44772 10.4477 2 11 2H11.01C11.5623 2 12.01 2.44772 12.01 3C12.01 3.55228 11.5623 4 11.01 4H11C10.4477 4 10 3.55228 10 3ZM14 3C14 2.44772 14.4477 2 15 2H15.01C15.5623 2 16.01 2.44772 16.01 3C16.01 3.55228 15.5623 4 15.01 4H15C14.4477 4 14 3.55228 14 3ZM2 7C2 6.44772 2.44772 6 3 6H3.01C3.56228 6 4.01 6.44772 4.01 7C4.01 7.55228 3.56228 8 3.01 8H3C2.44772 8 2 7.55228 2 7ZM15 6C15.5523 6 16 6.44772 16 7V8H21C21.5523 8 22 8.44772 22 9V21C22 21.5523 21.5523 22 21 22H9C8.44772 22 8 21.5523 8 21V16H7C6.44772 16 6 15.5523 6 15C6 14.4477 6.44772 14 7 14H8V9C8 8.44772 8.44772 8 9 8H14V7C14 6.44772 14.4477 6 15 6ZM10 10V20H20V10H10ZM2 11C2 10.4477 2.44772 10 3 10H3.01C3.56228 10 4.01 10.4477 4.01 11C4.01 11.5523 3.56228 12 3.01 12H3C2.44772 12 2 11.5523 2 11ZM2 15C2 14.4477 2.44772 14 3 14H3.01C3.56228 14 4.01 14.4477 4.01 15C4.01 15.5523 3.56228 16 3.01 16H3C2.44772 16 2 15.5523 2 15Z" fill="black"/>
</svg>

<svg
  width="24"
  height="24"
  viewBox="0 0 24 24"
  xmlns="http://www.w3.org/2000/svg"
>
  <path
    fill-rule="evenodd"
    clip-rule="evenodd"
    d="M2 3a1 1 0 0 1 1-1h.01a1 1 0 0 1 0 2H3a1 1 0 0 1-1-1zm4 0a1 1 0 0 1 1-1h.01a1 1 0 0 1 0 2H7a1 1 0 0 1-1-1zm4 0a1 1 0 0 1 1-1h.01a1 1 0 1 1 0 2H11a1 1 0 0 1-1-1zm4 0a1 1 0 0 1 1-1h.01a1 1 0 1 1 0 2H15a1 1 0 0 1-1-1zM2 7a1 1 0 0 1 1-1h.01a1 1 0 0 1 0 2H3a1 1 0 0 1-1-1zm13-1a1 1 0 0 1 1 1v1h5a1 1 0 0 1 1 1v12a1 1 0 0 1-1 1H9a1 1 0 0 1-1-1v-5H7a1 1 0 1 1 0-2h1V9a1 1 0 0 1 1-1h5V7a1 1 0 0 1 1-1zm-5 4v10h10V10H10zm-8 1a1 1 0 0 1 1-1h.01a1 1 0 1 1 0 2H3a1 1 0 0 1-1-1zm0 4a1 1 0 0 1 1-1h.01a1 1 0 1 1 0 2H3a1 1 0 0 1-1-1z"
  />
</svg>
